X:351
T:Tam Lin
Z: id:dc-reel-328
M:C
L:1/8
K:D Minor
C|A,DFD A,DFD|B,DFD B,DFD|CEGE CEGE|FAGE FEDC|!
A,DFD A,DFD|B,DFD B,DFD|CEGE CEGE|FDEC D3:|!
A|d^cdA FDD2|d^cdA FDD2|cEEE cEdE|cEEE A=BcA|!
d^cdA FDD2|d^cdA FDD2|B,DFD CEGE|FDEC D3:|!

